X:50
T:BNYJEAN4- The Stuttering Lovers
S:Sheet music song, 1906. 'Old Irish Air'  'Words traditional'
'arranged by Herbert Hughes'
Q:1/4=60
L:1/8
M:6/8
K:G
D|G2G G A B|D2D D2D|G2F G G A|(B3/2 B2) B|c2c c d e|\
d2G (GA) B|A2 A A A B|AzB A zB|A2D D2 D|G2G B B A|(G3G2)|]

